X: 49
T: Theobald's
%R: reel
B: Daniel Wright "Wright's Compleat Collection of Celebrated Country Dances" 1740 p.25
S: http://library.efdss.org/cgi-bin/dancebooks.cgi
Z: 2014 John Chambers <jc:trillian.mit.edu>
M: C|
L: 1/8
K: D
% - - - - - - - - - - - - - - - - - - - - - - - - -
|:\
A2A2 B2B2 | c2A2 A2Bc |\
d2B2 e2B2 | c2A2 A4 ::\
(dc)(BA) Bcd2 | G3F E3F |
G2B2 E2d2 | e2E2 E2EF |\
GFGA B2cd | edcB A2(GF) |\
G2B2 E2(dc) | d2D2 D4 |]
% - - - - - - - - - - - - - - - - - - - - - - - - -
%%begintext align
%% The 1st Man meet and set with the 2d
%% Wo. and turn single, then turn her .|
%% the 2d Cu. does the same :| then all 4
%% Right Hands across half round and
%% Left Hands back again .| then Back to
%% Back again with your Partner, then
%% Right and Left quite round.
%%endtext
% - - - - - - - - - - - - - - - - - - - - - - - - -
%%sep 2 4 300
